vendor/shopware/storefront/Resources/app/storefront/dist/assets/icon/solid/arrow-large-left.svg

<svg xmlns="http://www.w3.org/2000/svg" xmlns:xlink="http://www.w3.org/1999/xlink" width="16" height="16" viewBox="0 0 16 16">
  <defs>
    <path id="icons-small-arrow-large-left-a" d="M2.70710678,4.29289322 C2.31658249,3.90236893 1.68341751,3.90236893 1.29289322,4.29289322 C0.902368927,4.68341751 0.902368927,5.31658249 1.29289322,5.70710678 L7.29289322,11.7071068 C7.68341751,12.0976311 8.31658249,12.0976311 8.70710678,11.7071068 L14.7071068,5.70710678 C15.0976311,5.31658249 15.0976311,4.68341751 14.7071068,4.29289322 C14.3165825,3.90236893 13.6834175,3.90236893 13.2928932,4.29289322 L8,9.58578644 L2.70710678,4.29289322 Z"/>
  </defs>
  <use fill="#758CA3" fill-rule="evenodd" transform="matrix(0 -1 -1 0 16 16)" xlink:href="#icons-small-arrow-large-left-a"/>
</svg>

<svg xmlns="http://www.w3.org/2000/svg" xmlns:xlink="http://www.w3.org/1999/xlink" width="16" height="16" viewBox="0 0 16 16"><defs><path id="icons-small-arrow-large-left-a" d="M2.7071 4.2929c-.3905-.3905-1.0237-.3905-1.4142 0-.3905.3905-.3905 1.0237 0 1.4142l6 6c.3905.3905 1.0237.3905 1.4142 0l6-6c.3905-.3905.3905-1.0237 0-1.4142-.3905-.3905-1.0237-.3905-1.4142 0L8 9.5858l-5.2929-5.293z"/></defs><use fill="#758CA3" fill-rule="evenodd" transform="matrix(0 -1 -1 0 16 16)" xlink:href="#icons-small-arrow-large-left-a"/></svg>
